icons/svg/buffer.svg

﻿<?xml version="1.0" encoding="utf-8"?>
<!DOCTYPE svg PUBLIC "-//W3C//DTD SVG 1.1//EN" "http://www.w3.org/Graphics/SVG/1.1/DTD/svg11.dtd">
<svg xmlns="http://www.w3.org/2000/svg" xmlns:xlink="http://www.w3.org/1999/xlink" version="1.1" baseProfile="full" width="24" height="24" viewBox="0 0 24.00 24.00" enable-background="new 0 0 24.00 24.00" xml:space="preserve">
	<path fill="#000000" fill-opacity="1" stroke-width="1.33333" stroke-linejoin="miter" d="M 12.5999,2.86374C 15.2745,4.1044 17.9931,5.38564 20.664,6.63403C 20.8066,6.70069 20.9935,6.74604 20.9937,6.94784C 20.994,7.14998 20.8073,7.19498 20.6645,7.26171C 17.9828,8.51588 15.3008,9.76926 12.6171,11.019C 12.2084,11.2093 11.7886,11.2069 11.3794,11.0161C 8.69068,9.7628 6.00305,8.50723 3.31592,7.25067C 3.17761,7.18606 3.00359,7.13705 3.009,6.94038C 3.01407,6.75638 3.1805,6.70856 3.3136,6.64634C 6.01198,5.38556 8.73772,4.10482 11.4396,2.85171C 11.7252,2.71946 12.3023,2.72846 12.5999,2.86374 Z M 11.9979,21.1483C 11.8033,21.1483 11.6575,21.0745 11.3796,20.9705C 8.69468,19.725 6.01311,18.4725 3.33174,17.2195C 3.18922,17.1529 3.00465,17.1059 3.00633,16.9028C 3.00809,16.7008 3.1928,16.6562 3.33532,16.5884C 3.78012,16.3769 4.22717,16.1702 4.67401,15.9632C 5.12042,15.7562 5.56395,15.7591 6.0117,15.969C 7.78913,16.8022 9.56853,17.6313 11.3467,18.4626C 11.7882,18.6691 12.2261,18.6648 12.6671,18.4582C 14.4502,17.6232 16.2342,16.7899 18.0184,15.957C 18.4397,15.7603 18.8666,15.7548 19.2899,15.9466C 19.7658,16.1623 20.2383,16.3857 20.7112,16.6079C 20.7813,16.6409 20.8523,16.6781 20.9111,16.7275C 21.0374,16.834 21.0391,16.9782 20.9101,17.0815C 20.8317,17.1443 20.7379,17.1905 20.646,17.2334C 17.9863,18.4761 15.3269,19.7195 12.6636,20.9544C 12.4566,21.0503 12.1924,21.1483 11.9979,21.1483 Z M 11.9885,16.1685C 11.8995,16.1685 11.5539,16.0742 11.3572,15.9828C 8.68336,14.7411 6.01311,13.4917 3.34264,12.2429C 3.1992,12.1758 3.01217,12.1325 3.00844,11.9326C 3.0045,11.7206 3.20025,11.6782 3.34791,11.608C 3.79763,11.3939 4.24862,11.1822 4.70122,10.9742C 5.1304,10.7771 5.5603,10.7817 5.98913,10.982C 7.78456,11.8206 9.57992,12.6595 11.3767,13.4953C 11.7926,13.6888 12.2149,13.6874 12.6312,13.4936C 14.4331,12.6545 16.2337,11.8129 18.0353,10.9733C 18.4519,10.7792 18.8728,10.7793 19.2896,10.9695C 19.7647,11.1862 20.2368,11.4094 20.7093,11.6314C 20.7742,11.6619 20.8407,11.6941 20.8964,11.7383C 21.0397,11.8522 21.0386,12.0026 20.8935,12.1166C 20.8377,12.1605 20.7714,12.1929 20.7064,12.2233C 18.0086,13.4845 15.3113,14.7468 12.6102,16.0008C 12.4245,16.0871 12.0773,16.1685 11.9885,16.1685 Z "/>
</svg>

<svg xmlns="http://www.w3.org/2000/svg" version="1.1" baseProfile="full" width="24" height="24" viewBox="0 0 24.00 24.00" xml:space="preserve"><path fill="#000" fill-opacity="1" stroke-width="1.333" stroke-linejoin="miter" d="M12.6 2.864c2.675 1.24 5.393 2.522 8.064 3.77.143.067.33.112.33.314s-.187.247-.33.314c-2.68 1.254-5.363 2.507-8.047 3.757-.41.19-.828.187-1.238-.004-2.69-1.253-5.377-2.51-8.064-3.765-.138-.064-.312-.113-.307-.31.004-.184.17-.23.304-.294 2.698-1.26 5.424-2.54 8.126-3.794.285-.133.862-.124 1.16.012zm-.602 18.284c-.195 0-.34-.073-.618-.177-2.685-1.245-5.367-2.497-8.048-3.75-.143-.067-.327-.114-.326-.317.002-.202.187-.247.33-.315.444-.21.89-.418 1.338-.625.446-.207.89-.204 1.338.006 1.777.832 3.557 1.66 5.335 2.493.44.206.88.202 1.32-.005 1.783-.835 3.567-1.668 5.35-2.5.423-.198.85-.203 1.273-.01.476.214.948.438 1.42.66.07.033.142.07.2.12.127.106.13.25 0 .353-.078.064-.172.11-.264.153-2.66 1.243-5.32 2.486-7.982 3.72-.207.097-.472.195-.666.195zm-.01-4.98c-.088 0-.434-.094-.63-.185-2.675-1.242-5.345-2.49-8.015-3.74-.144-.067-.33-.11-.335-.31-.003-.212.192-.255.34-.325.45-.214.9-.426 1.353-.634.43-.197.86-.192 1.29.008 1.795.84 3.59 1.678 5.387 2.513.416.194.838.192 1.254 0 1.803-.84 3.604-1.682 5.405-2.522.417-.194.838-.194 1.255-.004.475.216.947.44 1.42.66.064.032.13.064.186.108.144.114.143.265-.003.38-.055.043-.122.075-.187.105-2.697 1.26-5.395 2.524-8.096 3.778-.185.087-.533.17-.62.17z"/></svg>
